X: 25310
T: Manannan Song
R: reel
M: 4/4
K: Dmajor
D3E F2 A2|d2 cd BA F2|D3E F2 A2|B2 GF E4|
D3E F2 A2|d2 cd BA F2|D3E F2 F2|E2 DC D4||

